X:1
T:Title
%%score { 1 | 2 }
L:1/8
M:3/4
K:Eb
V:1 treble nm="Grand Piano"
V:2 bass 
V:1
 z2 z2[Q:1/4=100] G>F | E3 G B>B | c B3 e>d | c3 B E>G |[M:2/4] [DF]4 |[M:1/4] [DG]>[DF] | %6
[M:3/4] E3 G B>B | c B3 [Ge]>[Af] | [Ge]3 [B,EG] [B,EG]>[A,DF] |[M:2/4] [G,E]4 | %10
[M:1/4] (3[GB][EG][GB] |[M:3/4] [Ge]2 [GB]2 (3[GB]Gc | B2 G2 B>B | c3 A e>c |[M:2/4] B4 | %15
[M:1/4] [GB]>[GB] |[M:3/4] [Ge]2 [Ge]2 (3fec | [GB]2 [EG]2 [GB]>[Ge] | d3 [DB] [DA]>D | %19
[M:2/4] E4 |] %20
V:2
 z2 z2 [E,B,E]>[E,A,E] | [E,G,]3 [E,B,E] [E,G,E]>[E,G,E] | [E,A,E] [E,G,E]3 [E,G,E]>[E,B,E] | %3
 [E,A,E]3 [E,G,E] [E,G,B,]>[E,B,E] |[M:2/4] [B,,B,]4 |[M:1/4] [B,,B,]>[B,,A,] | %6
[M:3/4] [E,G,]3 [E,B,E] [E,G,E]>[E,G,E] | [E,A,E] [E,G,E]3 [E,B,]>[E,B,] | [E,B,]3 E, B,,>B,, | %9
[M:2/4] E,4 |[M:1/4] (3:2:2[E,B,]2 [E,B,] |[M:3/4] [E,B,]2 [E,E]2 (3[E,B,]-[E,B,E][E,A,E] | %12
 [E,G,E]2 [E,B,E]2 [E,G,E]>[E,G,E] | [A,E]3 [A,CE] [A,CE]>[A,E] |[M:2/4] [E,G,E]4 | %15
[M:1/4] [E,B,]>[E,B,] |[M:3/4] [E,B,]2 [E,B,]2[K:treble] (3[A,A][A,CA][A,EA] | %17
 [E,E]2 [E,B,]2 [E,B,]>[E,B,] | [B,F]3 [B,,B,] [B,,B,]>[B,,A,B,] |[M:2/4] [E,G,B,]4 |] %20

